X: 16880
T: Hattie Man O' Ree, The
R: reel
M: 4/4
K: Gmajor
|:f2|gdBG DGBd|cBAF G2 D2|1 EGcG DGBG|AB^cAd2:|2 EGBd DFAc|B2G2G2||
G2|:ECEG cGEG|DB,DG B2G2|1 FDFA cAFA|GBAG D2G2:|2 G2B2G2zG||
AB^cA d2f2|gdBG DGBd|cBAF G2D2|EGBd DFAc|B2G2G2||

